X: 490
T: The Merry lads of Ayre
%R: reel
B: "Preston's Twenty Four Country Dances for the Year 1803", Tho. Preston, ed. p.205 #2
F: http://archive.org/details/Prestons24CountryDancesForTheYear1805
F: http://folkopedia.efdss.org/wiki/File:Preston_24_1803.PDF
Z: 2011,2014 John Chambers <jc:trillian.mit.edu>
M: C
L: 1/8
K: C
% - - - - - - - - - - - - - - - - - - - - - - - - -
g |\
{f}e>dcA cGGg | {f}e>dcA f2 (e/f/g) |\
e>dce (d/c/B/A/) cG | (A/B/c) (GE) D2D :|
|: e |\
c2ga gega | c/c/c g>a {a}g2fe |\
c2(ga) gece | f>g a/g/f/e/ d2d :|
% - - - - - - - - - - - - - - - - - - - - - - - - -
%%begintext align
%% Set & change sides, then hands across & back
%% again, lead down the middle Allemande and
%% turn corners.
%%endtext

%%sep 1 1 500
%%sep 1 1 500
